packages/icons/svg/Outline/corner-right-down.svg

<svg width="24" height="24" viewBox="0 0 24 24" fill="none" xmlns="http://www.w3.org/2000/svg">
<g id="Icon/Outline/corner-right-down">
<path id="Mask" fill-rule="evenodd" clip-rule="evenodd" d="M18.7808 14.3755C18.4358 13.9435 17.8058 13.8745 17.3758 14.2195L13.9998 16.9195V8.00049C13.9998 6.34549 12.6548 5.00049 10.9998 5.00049H5.99976C5.44776 5.00049 4.99976 5.44749 4.99976 6.00049C4.99976 6.55249 5.44776 7.00049 5.99976 7.00049H10.9998C11.5518 7.00049 11.9998 7.44849 11.9998 8.00049V16.9195L8.62476 14.2195C8.19476 13.8745 7.56476 13.9435 7.21876 14.3755C6.87376 14.8065 6.94376 15.4365 7.37576 15.7805L12.3758 19.7805C12.5578 19.9265 12.7788 20.0005 12.9998 20.0005C13.2208 20.0005 13.4418 19.9265 13.6248 19.7805L18.6248 15.7805C19.0558 15.4365 19.1258 14.8065 18.7808 14.3755Z" fill="#000000"/>
</g>
</svg>

<svg fill="none" height="24" viewBox="0 0 24 24" width="24" xmlns="http://www.w3.org/2000/svg"><path clip-rule="evenodd" d="m18.7808 14.3755c-.345-.432-.975-.501-1.405-.156l-3.376 2.7v-8.91901c0-1.655-1.345-3-3-3h-4.99998c-.552 0-1 .447-1 1 0 .552.448 1 1 1h4.99998c.552 0 1 .448 1 1v8.91901l-3.37498-2.7c-.43-.345-1.06-.276-1.406.156-.345.431-.275 1.061.157 1.405l4.99998 4c.182.146.403.22.624.22s.442-.074.625-.22l5-4c.431-.344.501-.974.156-1.405" fill="#6b7280" fill-rule="evenodd"/></svg>
